!!!COM: Mozart, Wolfgang Amadeus
!!!CDT: 1756/01/27/-1791/12/05/
!!!CNT: German
!!!OTL: Piano Sonata No. 6 in D major
!!!SCT1: K<sup>1</sup> 284
!!!SCT2: K<sup>6</sup> 205b
!!!OMV: Mvmt. 3h
!!!OMD: Variation 7: Minore
!!!ODT: 1775///
**kern	**kern	**dynam
*staff2	*staff1	*staff1
*>[A,A,B,B]	*>[A,A,B,B]	*>[A,A,B,B]
*>norep[A,B]	*>norep[A,B]	*>norep[A,B]
*>A	*>A	*>A
*clefF4	*clefG2	*clefG2
*k[b-]	*k[b-]	*k[b-]
*d:	*d:	*d:
*M2/2	*M2/2	*M2/2
*met(c|)	*met(c|)	*met(c|)
*MM110	*MM110	*MM110
=	=	=
2r	(>8aL<	p
.	8b-	.
.	8a	.
.	8cc#J	.
*clefG2	*	*
=1	=1	=1
8r	4dd')	.
8d 8f 8aL	.	.
8d 8f 8a	4r	.
8d 8f 8aJ	.	.
8r	(4.aatt	.
8d 8f 8aL	.	.
8d 8f 8a	.	.
8d 8f 8aJ	16ggLL	.
.	16ffJJ	.
*clefF4	*	*
=2	=2	=2
8r	4ee)	.
8G 8B- 8eL	.	.
8G 8B- 8e	4r	.
8G 8B- 8eJ	.	.
8r	(4.ggTT	.
8A 8c# 8eL	.	.
8A 8c# 8e	.	.
8A 8c# 8eJ	16ffLL	.
.	16eeJJ	.
=3	=3	=3
*	*^	*
4D (4d	2.ryy	8ffL	f
.	.	8dd	.
4Cn 4cn	.	8ff#	.
.	.	8ddJ	.
4BBn 4Bn	.	8ggL	.
.	.	8dd	.
4BB- 4B-)	4ddd	8gg#	.
.	.	8ddJ)	.
=4	=4	=4	=4
2AA 2A	2aa	(4ffn 4ddd	.
.	.	4ee 4ccc#)	.
2r	(8aL<	2ryy	p
.	8b-	.	.
.	8a	.	.
.	8cc#J	.	.
*	*v	*v	*
=5	=5	=5
8r	4dd')	.
8F 8A 8dL	.	.
8F 8A 8d	4r	.
8F 8A 8dJ	.	.
!	!LO:TX:b:i:t=cresc.	!
8r	(4.ddTT	.
8F 8A 8dL	.	.
8F 8A 8d	.	.
8F 8A 8dJ	16cc#LL	.
.	16ddJJ	.
=6	=6	=6
8r	4dd#)	.
8F 8A 8cL	.	.
8F 8A 8c	4r	.
8F 8A 8cJ	.	.
8r	(4.dd#tt	f
8F 8A 8cL	.	.
8F 8A 8c	.	.
8F 8A 8cJ	16cc##LL	.
.	16dd#JJ	.
=7	=7	=7
4E 4A 4c	4ee)	.
4r	2a	p
2E 2Bn 2d	.	.
.	(8.bnL	.
.	16g#Jk	.
=8	=8	=8
4A 4c	4a)	.
4r	4r	.
=:|!|:	=:|!|:	=:|!|:
*>B	*>B	*>B
2r	(8aaL	p
.	8gg#	.
.	8aa	.
.	8bbnJ	.
*clefG2	*	*
=9	=9	=9
(4f# 4a	8cccL	.
.	8ee-	.
4g 4bn	8dd	.
.	8bbnJ	.
4e 4g	8bb-L	.
.	8cc#	.
4fn) 4a	8dd	.
.	8aaJ)	.
*clefF4	*	*
=10	=10	=10
*	*^	*
(8B-XL	(4gg	4dd	f
8BB-	.	.	.
8AA	4ffn	4ccn	.
8AJ)	.	.	.
(8GL<	4ee-	4b-	.
8GG	.	.	.
8FF	4dd)	4a	.
8FJ)	.	.	.
=11	=11	=11	=11
8E'	(8cc#L	8g'	p
8r	8dd	8r	.
4r	8een	4r	.
.	8ddJ)	.	.
8F'	(8ddL	8a'	.
8r	8ee	8r	.
4r	8ff	4r	.
.	8eeJ)	.	.
=12	=12	=12	=12
8A	8ee	8cc#	.
8r	8r	8ryy	.
4r	4r	4ryy	.
(8EEL	2r	2ryy	.
8FF	.	.	.
8EE	.	.	.
8GG#J	.	.	.
*	*v	*v	*
=13	=13	=13
4AA)	2r	.
4r	.	.
2r	(8aL<	.
.	8b-X	.
.	8a	.
.	8cc#J	.
=14	=14	=14
8r	4dd')	.
8F 8A 8dL	.	.
8F 8A 8d	4r	.
8F 8A 8dJ	.	.
8r	(4.eett	.
8G 8B- 8dL	.	.
8G 8B- 8d	.	.
8G 8B- 8dJ	16ddLL	.
.	16eeJJ	.
=15	=15	=15
8r	4ff#)	.
8A 8cn 8dL	.	.
8A 8c 8d	4r	.
8A 8c 8dJ	.	.
8r	(4.ggTT	.
8Bn 8dL	.	.
8B 8d	.	.
8B 8dJ	16ff#XLL	.
.	16ggJJ	.
=16	=16	=16
*^	*	*
2.ryy	4B-X 4d	4gg#	.
.	2A 2d 2f	2aa)	.
(8.gL	4A	(8.eeL	p
16eJk	.	16cc#Jk	.
=17	=17	=17	=17
4f)	4d	4dd)	.
4r	4ryy	4r	.
*v	*v	*	*
==:|!	==:|!	==:|!
*-	*-	*-
!!!RDF**kern: > = above
!!!RDF**kern: < = below
!!!SMS: Alte Mozart-Ausgabe, Band 20, Breitkopf &amp; H&auml;rtel 1877-1883.
!!!ONB: Stich und Druck von Breitkopf &amp; H&auml;rtel in Leipzig
!!!ONB: Ausgegeben 1878
!!!ENC: Craig Stuart Sapp
!!!END: 2009/09/22/
!!!EED: Craig Stuart Sapp
!!!EEV: 2017/02/01/
!!!title: @{OTL}, K 284 (205b), @{OMV}
